**kern	**kern
*staff2	*staff1
*clefF4	*clefG2
*k[b-e-]	*k[b-e-]
*M3/8	*M3/8
=286	=286
16BB-LL	8B-'
16B-	.
16F	[4d [4f [4b-
16D	.
16BB-	.
16FJJ	.
=287	=287
16DLL	8d] 8f] 8b-]
16BB-	.
16FF	[4f [4b- [4dd
16DD	.
16BBB-	.
16FFJJ	.
=288	=288
16FFFLL	8f] 8b-] 8dd]
16AAA	.
16CC	[4f [4a [4cc
16FF	.
16AA	.
16CJJ	.
=289	=289
16ELL	8fL] 8a] 8cc]
16F	.
16E	8f'
16F	.
16E	8f'J
16FJJ	.
=290	=290
16FLL	8f'
16e-	.
16c	[4f [4a [4cc
16A	.
16F	.
16cJJ	.
=291	=291
16ALL	8f] 8a] 8cc]
16F	.
16E-	[4f [4a [4cc [4ff
16C	.
16AA	.
16FFJJ	.
=292	=292
16BBB-LL	8f] 8a] 8cc] 8ff]
16DD	.
16FF	[4f [4b- [4dd
16BB-	.
16D	.
16FJJ	.
=293	=293
16ALL	8fL] 8b-] 8dd]
16B-	.
16A	8b-'
16B-	.
16A	8b-'J
16B-JJ	.
=294	=294
16E-LL	8g' 8b-'
16e-	.
16B-	[4g [4b- [4ee-
16G	.
16E-	.
16B-JJ	.
=295	=295
16GLL	8g] 8b-] 8ee-]
16E-	.
16BB-	[4g [4b- [4ee- [4gg
16G	.
16E-	.
16BB-JJ	.
=296	=296
16BBB-LL	8g] 8b-] 8ee-] 8gg]
16BB-	.
16D	[4f [4b- [4dd [4ff
16F	.
16BB-	.
16DJJ	.
=297	=297
16FLL	8f] 8b-] 8dd] 8ff]
16B-	.
16BB-	[4f [4b- [4dd
16D	.
16F	.
16B-JJ	.
=298	=298
16EE-LL	8f] 8b-] 8dd]
16E-	.
16D	[4g [4cc [4ee-
16E-	.
16EE-	.
16E-JJ	.
=299	=299
16FFLL	8g] 8cc] 8ee-]
16F	.
16E	4e- 4a 4cc
16F	.
16FF	.
16FJJ	.
=300	=300
4BB-	4d 4b-
8BB-^ 8B-^	8d^ 8f^
=301	=301
4BB- 4B-	4d 4f
8BB-^ 8B-^	8d^ 8f^
=302	=302
4BB- 4B-	4d 4f
8BB-^ 8B-^	8d^ 8f^
=303	=303
4BB- 4B-	4d 4f
8BB-^ 8B-^	8d^ 8f^
=304	=304
4BB- 4B-	4e- 4g-
8BB-^ 8B-^	8e-^ 8g-^
=305	=305
4BB- 4B-	4e- 4g-
8BB-^ 8B-^	8e-^ 8g-^
=306	=306
4BB- 4B-	4e- 4g-
8BB-^ 8B-^	8e-^ 8g-^
=307	=307
4BB- 4B-	4e- 4g-
8BB-^ 8B-^	8e-^ 8g-^
=308	=308
(4C-' 4c-'	(4e-' 4g-'
8C-') 8c-'	8e-') 8g-'
=309	=309
(4C-' 4c-'	(4e-' 4g-'
8C-') 8c-'	8e-') 8g-'
=310	=310
(4C-' 4c-'	(4e-' 4g-'
8C-') 8c-'	8e-') 8g-'
=311	=311
(4C-' 4c-'	(4e-' 4g-'
8C-') 8c-'	8e-') 8g-'
=	=
*-	*-
